X: 300
T: The Dingle Regatta
B: tunes
M:12/8
R: slide
Q: 3/8=100
K:Dmajor
V:1 
|:dcd e2d BAB d2B|A3 AGA B2A G2A|
 dcd e2d BAB d2B|A3 B2A G6:|
 |:d3 def g3 gfg|a3 aga b2ag2e|
 d3 def g3 gfg|a2gf2e def g3:|
 |:g3 d3 B3 G3|FGA DEF G2A B2d|
 g3 d3 B3 G3|FGA DEF G6:|
% abcbook-tune_id 6345602d8f94c2fd1be2f95e
% abcbook-tune_composer_id 
% abcbook-boost 18
% abcbook-difficulty 7
% abcbook-tags nick hutten,steve ryan,youtube todo
% abcbook-tablature 
% abcbook-transpose 
% abcbook-tuning 
% abcbook-lastupdated 1675775543318
% abcbook-soundfonts 
% abcbook-repeats 1


